X:1
T:Bristol (Ravenscroft), CM
T:Melody from Ravenscroft’s Psalter, 1621
T:Bristol (Ravenscroft), CM
T:Public Domain
C:Melody from Ravenscroft&#8217;s Psalter, 1621
Z:Public Domain
%%score ( 1 2 ) ( 3 4 )
L:1/8
M:none
K:F
V:1 treble 
V:2 treble 
V:3 bass 
V:4 bass 
V:1
 [Cc]4 | [DB]2 [CG]2 [CA]2 [CF]2 | D2 z G F4 [DB]4 | [DA]2 (B,C) [DG]2 z C | [=B,G]4 [CG]4 | %5
 [CA]2 [B,B]2 [CA]2 [CF]2 | [B,G]2 (A,B,) [CE]4 [Gc]4 | [FA]2 [FB]2 [FG]2 [EG]2 | F4 |] %9
V:2
 x4 | x8 | G3 (E2 F4) x3 | x2 G2 x ^F2 x | x8 | x8 | x2 F2 x8 | x8 | F4 |] %9
V:3
 [F,A,]4 | [B,,G,]2 [C,E,]2 F,2 [A,,C]2 | [B,,B,]2 [C,G,]2 [F,A,]4 G,4 | %3
 [D,^F,]2 [_E,G,]2 [D,A,]2 [D,A,]2 | [G,,G,]4 [C,E,]4 | F,2 [D,F,]2 F,2 [A,,F,]2 | %6
 [B,,D,]2 [D,F,]2 [C,G,]4 [E,C]4 | [F,C]2 [B,,D]2 [C,G,]2 (CB,) | [F,A,]4 |] %9
V:4
 x4 | x4 F,2 x2 | x8 G,4 | x8 | x8 | F,2 F,2 x4 | x12 | x6 C,2 | x4 |] %9

